packages/xm_dkfz_net_site/Resources/Public/Icons/emergency.svg

<svg width="100%" height="100%" viewBox="0 0 24 24" version="1.1" xmlns="http://www.w3.org/2000/svg" xmlns:xlink="http://www.w3.org/1999/xlink" xml:space="preserve" xmlns:serif="http://www.serif.com/" style="fill-rule:evenodd;clip-rule:evenodd;stroke-linejoin:round;stroke-miterlimit:2;">
    <path d="M7.321,7.321L7.321,1.019C7.321,0.456 7.777,0 8.34,0L15.66,0C16.223,0 16.679,0.456 16.679,1.019L16.679,7.321L22.981,7.321C23.544,7.321 24,7.777 24,8.34L24,15.66C24,16.223 23.544,16.679 22.981,16.679L16.679,16.679L16.679,22.981C16.679,23.544 16.223,24 15.66,24L8.34,24C7.777,24 7.321,23.544 7.321,22.981L7.321,16.679L1.019,16.679C0.456,16.679 0,16.223 0,15.66L0,8.34C0,7.777 0.456,7.321 1.019,7.321L7.321,7.321ZM14.642,2.038L9.358,2.038L9.358,8.34C9.358,8.902 8.902,9.358 8.34,9.358L2.038,9.358L2.038,14.642L8.34,14.642C8.902,14.642 9.358,15.098 9.358,15.66L9.358,21.962L14.642,21.962L14.642,15.66C14.642,15.098 15.098,14.642 15.66,14.642L21.962,14.642L21.962,9.358L15.66,9.358C15.098,9.358 14.642,8.902 14.642,8.34L14.642,2.038Z"/>
</svg>

<svg xmlns="http://www.w3.org/2000/svg" xml:space="preserve" style="fill-rule:evenodd;clip-rule:evenodd;stroke-linejoin:round;stroke-miterlimit:2" viewBox="0 0 24 24"><path d="M7.32 7.32v-6.3C7.32.46 7.78 0 8.34 0h7.32c.56 0 1.02.46 1.02 1.02v6.3h6.3c.56 0 1.02.46 1.02 1.02v7.32c0 .56-.46 1.02-1.02 1.02h-6.3v6.3c0 .56-.46 1.02-1.02 1.02H8.34c-.56 0-1.02-.46-1.02-1.02v-6.3h-6.3c-.56 0-1.02-.46-1.02-1.02V8.34c0-.56.46-1.02 1.02-1.02h6.3Zm7.32-5.28H9.36v6.3c0 .56-.46 1.02-1.02 1.02h-6.3v5.28h6.3c.56 0 1.02.46 1.02 1.02v6.3h5.28v-6.3c0-.56.46-1.02 1.02-1.02h6.3V9.36h-6.3c-.56 0-1.02-.46-1.02-1.02v-6.3Z"/></svg>
